X:3675
T:Morgan Rattler
M:6/8
O:England
R:Jig
Z:Richard Robinson 
%%TUNEURL: http://www.leeds.ac.uk/music/Info/RRTuneBk/gettune/00000c13.html
%%ID:00000c13
K:D
AGF EFG | FEF D2F | AGF EFG | B2A Bcd | \
AGF EFG | FEF D2B | agf edc | B2A Bcd ::
d2e fed | c2d ecA | d2e fed | f2e fga | \
d2e fdB | c2d efg | agf edc | B2A Bcd ::
D2d dcd | E2e ede | D2d dcd | B2A Bcd | \
D2d dcd | E2e efg | agf edc | B2A Bcd:|
